client/public/img/game/shared/weapons/revitalizer_world.svg

<?xml version="1.0" encoding="UTF-8" standalone="no"?>
<svg
   width="120"
   height="21"
   viewBox="0 0 120 21"
   fill="none"
   version="1.1"
   id="svg15"
   xmlns="http://www.w3.org/2000/svg"
   xmlns:svg="http://www.w3.org/2000/svg">
  <defs
     id="defs15" />
  <path
     d="M45.2363 16.6038L29.0991 15.7943V5.3643L45.2363 4.55469V16.6038Z"
     fill="#46423F"
     stroke="#181716"
     stroke-width="3.00001"
     stroke-linejoin="round"
     id="path1" />
  <path
     d="M53.6245 4.73761H5.64502V2.33008H53.6245V4.73761Z"
     fill="#3E3B38"
     stroke="#181716"
     stroke-width="1.49999"
     id="path2" />
  <path
     d="M53.6245 18.8255H5.64502V16.418H53.6245V18.8255Z"
     fill="#3E3B38"
     stroke="#181716"
     stroke-width="1.49999"
     id="path3" />
  <path
     fill-rule="evenodd"
     clip-rule="evenodd"
     d="M83.4875 4.07758C83.7635 3.31789 84.1603 2.06686 85.6079 2.0782H103.576C104.812 2.0782 105.503 3.08356 105.7 4.08135C106.524 8.23884 106.486 12.5211 105.7 17.0792C105.511 18.1715 104.679 19.0408 103.53 19.0786H85.6041C84.2246 19.0256 83.7332 17.9976 83.4875 17.0754C82.3764 12.865 81.8434 8.6357 83.4875 4.07758Z"
     fill="#46433F"
     id="path4" />
  <path
     d="M90.0651 3.13867V18.0225ZM87.0415 3.22182V17.9393ZM93.0888 3.25206V17.9091ZM96.1124 3.25206V17.9091ZM99.136 3.25206V17.9091ZM102.16 3.25206V17.9091Z"
     fill="#403D3A"
     id="path5" />
  <path
     d="M90.0651 3.13867V18.0225M87.0415 3.22182V17.9393M93.0888 3.25206V17.9091M96.1124 3.25206V17.9091M99.136 3.25206V17.9091M102.16 3.25206V17.9091"
     stroke="#282624"
     stroke-width="1.64825"
     stroke-linecap="round"
     id="path6" />
  <path
     fill-rule="evenodd"
     clip-rule="evenodd"
     d="M83.4928 4.07758C83.7687 3.31789 84.1618 2.06686 85.6056 2.0782H103.577C104.809 2.0782 105.505 3.08356 105.701 4.08135C106.525 8.23884 106.488 12.5211 105.701 17.0792C105.512 18.1715 104.681 19.0408 103.532 19.0786H85.6056C84.2261 19.0256 83.7348 17.9976 83.4891 17.0754C82.3779 12.865 81.845 8.6357 83.4928 4.07758Z"
     stroke="#181716"
     stroke-width="3.00001"
     stroke-miterlimit="5.89"
     stroke-linecap="round"
     stroke-linejoin="round"
     id="path7" />
  <path
     fill-rule="evenodd"
     clip-rule="evenodd"
     d="M67.1802 7.07812H115.496V14.0778H67.1802V7.07812Z"
     fill="#635D5A"
     stroke="#181716"
     stroke-width="3.00001"
     stroke-miterlimit="5.89"
     stroke-linecap="round"
     stroke-linejoin="round"
     id="path8" />
  <path
     d="M11.1538 2.07812H2.00586V19.0805H11.1538"
     fill="#46423F"
     stroke="#181716"
     stroke-width="3.00001"
     stroke-linejoin="round"
     id="path9" />
  <path
     d="M70.8842 18.3597L70.9749 2.75781H52.5383C50.6372 2.90143 46.9068 4.13734 45.4857 4.64002L45.395 16.6892C46.6536 17.1238 50.8829 18.3635 52.3834 18.3975L70.8842 18.3597Z"
     fill="#736C68"
     id="path10" />
  <path
     d="M70.359 6.09826H54.1561C51.2874 6.10582 48.7627 6.95243 46.2871 7.60629L46.4421 3.90234H70.6727L70.359 6.09826ZM70.359 15.0558H54.1561C51.2874 15.052 48.7627 14.2054 46.2871 13.5515L46.4421 17.2554H70.6727L70.359 15.0558Z"
     fill="#6B6561"
     id="path11" />
  <path
     d="M68.7223 18.1402C69.8713 18.1478 70.7633 17.8757 70.786 16.8174L70.8049 4.42051C70.8087 3.21106 70.3211 2.97673 68.813 2.98051H53.1733C50.9405 2.98051 46.49 4.14083 45.2363 4.64351V16.6927C46.4949 17.1273 50.94 18.1402 53.1733 18.178L68.7223 18.1402Z"
     stroke="#181716"
     stroke-width="3.00001"
     stroke-linejoin="round"
     id="path12" />
  <path
     d="M61.5459 10.5801L112.408 10.5801"
     stroke="#702929"
     id="path13" />
  <path
     d="M50.1973 7.40063C50.1973 7.3951 50.2017 7.39062 50.2073 7.39062H61.5359C61.5414 7.39062 61.5459 7.3951 61.5459 7.40062V13.7556C61.5459 13.7611 61.5414 13.7656 61.5359 13.7656H50.2073C50.2017 13.7656 50.1973 13.7611 50.1973 13.7556V7.40063Z"
     fill="#6F705C"
     stroke="#191915"
     stroke-width="3"
     id="path14" />
  <path
     d="M112.408 6.0614C112.408 6.056 112.412 6.05158 112.418 6.0514L118.371 5.85581C118.376 5.85562 118.381 5.86015 118.381 5.8658V15.2913C118.381 15.2969 118.376 15.3015 118.371 15.3013L112.418 15.102C112.412 15.1019 112.408 15.0974 112.408 15.092V6.0614Z"
     fill="#6F705C"
     stroke="#191915"
     stroke-width="3"
     id="path15" />
</svg>

<svg xmlns="http://www.w3.org/2000/svg" width="120" height="21" fill="none"><path fill="#46423F" stroke="#181716" stroke-linejoin="round" stroke-width="3" d="m45.236 16.604-16.137-.81V5.364l16.137-.81z"/><path fill="#3E3B38" stroke="#181716" stroke-width="1.5" d="M53.625 4.738H5.645V2.33h47.98zM53.625 18.826H5.645v-2.408h47.98z"/><path fill="#46433F" fill-rule="evenodd" d="M83.488 4.078c.275-.76.672-2.011 2.12-2h17.968c1.236 0 1.927 1.006 2.124 2.003.824 4.158.786 8.44 0 12.998-.189 1.093-1.021 1.962-2.17 2H85.604c-1.38-.053-1.87-1.081-2.117-2.004-1.11-4.21-1.644-8.44 0-12.997" clip-rule="evenodd"/><path fill="#403D3A" d="M90.065 3.139v14.884Zm-3.023.083v14.717Zm6.047.03V17.91Zm3.023 0V17.91Zm3.024 0V17.91Zm3.024 0V17.91Z"/><path stroke="#282624" stroke-linecap="round" stroke-width="1.648" d="M90.065 3.139v14.884M87.042 3.222v14.717m6.047-14.687V17.91m3.023-14.657V17.91m3.024-14.657V17.91m3.024-14.657V17.91"/><path stroke="#181716" stroke-linecap="round" stroke-linejoin="round" stroke-miterlimit="5.89" stroke-width="3" d="M83.493 4.078c.276-.76.669-2.011 2.113-2h17.971c1.232 0 1.928 1.006 2.124 2.003.824 4.158.787 8.44 0 12.998-.189 1.093-1.02 1.962-2.169 2H85.606c-1.38-.053-1.871-1.081-2.117-2.004-1.111-4.21-1.644-8.44.004-12.997" clip-rule="evenodd"/><path fill="#635D5A" fill-rule="evenodd" stroke="#181716" stroke-linecap="round" stroke-linejoin="round" stroke-miterlimit="5.89" stroke-width="3" d="M67.18 7.078h48.316v7H67.18z" clip-rule="evenodd"/><path fill="#46423F" stroke="#181716" stroke-linejoin="round" stroke-width="3" d="M11.154 2.078H2.006v17.003h9.148"/><path fill="#736C68" d="m70.884 18.36.09-15.602H52.539c-1.9.143-5.631 1.38-7.052 1.882l-.091 12.05c1.259.434 5.488 1.673 6.988 1.707z"/><path fill="#6B6561" d="M70.359 6.098H54.156c-2.869.008-5.393.854-7.869 1.508l.155-3.704h24.23zm0 8.958H54.156c-2.869-.004-5.393-.85-7.869-1.504l.155 3.703h24.23z"/><path stroke="#181716" stroke-linejoin="round" stroke-width="3" d="M68.722 18.14c1.15.008 2.041-.264 2.064-1.323l.019-12.396c.004-1.21-.484-1.444-1.992-1.44h-15.64c-2.233 0-6.683 1.16-7.937 1.663v12.049c1.259.434 5.704 1.447 7.937 1.485z"/><path stroke="#702929" d="M61.546 10.58h50.862"/><path fill="#6F705C" stroke="#191915" stroke-width="3" d="M50.197 7.4a.01.01 0 0 1 .01-.01h11.329a.01.01 0 0 1 .01.01v6.356a.01.01 0 0 1-.01.01H50.207a.01.01 0 0 1-.01-.01zM112.408 6.061a.01.01 0 0 1 .01-.01l5.953-.195a.01.01 0 0 1 .01.01v9.425q-.001.01-.01.01l-5.953-.199a.01.01 0 0 1-.01-.01z"/></svg>
